!!!!SEGMENT: pl-gd--ee-1638--002-027_marenzio-luca--motettorum-pro-festis-totius-anni-in-festo-dedicat-s-mich-archang-princeps-gloriosissime.krn
!!!cenid: 15xx:1030
!!!COM: Marenzio, Luca
!!!COM-rismid: pe30003955
!!!CDT: ~1553-1599/08/22
!!!CNT: Italian
!!!GTL: Motettorum pro festis totius anni
!!!OTL: In festo Dedicat. S. Mich. Archang./Princeps gloriosissime
!!!OMV: 027
!!!PDT: 1588
!!!AGN:
!!!SMS-siglum: PL-GD
!!!SMS-shelfmark: Ee 1638
!!!SMS-shelfwork: 002-027 G
!!!SMS-variant:
!!!SMS-altvar:
!!!NIFC-rismid: 990039238
!!!URL-scan: https://repozytorium.nifc.pl/islandora/object/pl-gd%3A57883/datastream/PDF/view
!!!ONB-nifc: UWAGA: Cantus: s. 629 (prawa), Altus: s. 477 (prawa), Tenor: s. 325 (prawa), Bassus: s. 173 (prawa)
!!!AIN: 1 alto 1 bass 1 soprn 1 tenor
!!!key:
**kern	**text	**kern	**text	**kern	**text	**kern	**text
*part4	*part4	*part3	*part3	*part2	*part2	*part1	*part1
*staff4	*staff4	*staff3	*staff3	*staff2	*staff2	*staff1	*staff1
*I"BASSUS	*	*I"TENOR	*	*I"ALTUS	*	*I"CANTUS	*
*I'B	*	*I'T	*	*I'A	*	*I'S	*
*Ibass	*	*Itenor	*	*Ialto	*	*Isoprn	*
*ICvox	*	*ICvox	*	*ICvox	*	*ICvox	*
*IG	*	*	*	*	*	*	*
*clefF3	*	*clefC3	*	*clefC2	*	*clefG2	*
*k[b-]	*	*k[b-]	*	*k[b-]	*	*k[b-]	*
*F:	*	*F:	*	*F:	*	*F:	*
*M4/4	*	*M4/4	*	*M4/4	*	*M4/4	*
*met(C)	*	*met(C)	*	*met(C)	*	*met(C)	*
=1-	=1-	=1-	=1-	=1-	=1-	=1-	=1-
!LO:TX:a:t=In festo Dedicat. S. Mich. Archang.	!	!LO:TX:a:t=In festo Dedicat. S. Mich. Archang.	!	!LO:TX:a:t=In festo Dedicat. S. Mich. Archang.	!	!LO:TX:a:t=In festo Dedicat. S. Mich. Archang.	!
1r	.	0c	PRin-	1r	.	1r	.
=2-	=2-	=2-	=2-	=2-	=2-	=2-	=2-
0F	PRin-	.	.	0f	PRin-	0a	PRin-
=3-	=3-	=3-	=3-	=3-	=3-	=3-	=3-
.	.	1c	-ceps	.	.	.	.
=4-	=4-	=4-	=4-	=4-	=4-	=4-	=4-
1F	-ceps	2r	.	0f	-ceps	0a	-ceps
.	.	2f\	glo-	.	.	.	.
=5-	=5-	=5-	=5-	=5-	=5-	=5-	=5-
2r	.	2d\	-rio-	.	.	.	.
2F/	glo-	2c/	ſi-	.	.	.	.
=6-	=6-	=6-	=6-	=6-	=6-	=6-	=6-
2A\	-rio-	2.f\	ſsi-	1r	.	1r	.
2B-\	ſi-	.	.	.	.	.	.
.	.	4f\	.	.	.	.	.
=7-	=7-	=7-	=7-	=7-	=7-	=7-	=7-
*	*	*	*	*	*	*	*ij
2.c\	.	1e	-me	2r	.	1g	Prin-
.	.	.	.	2g\	glo-	.	.
4c\	ſi-	.	.	.	.	.	.
=8-	=8-	=8-	=8-	=8-	=8-	=8-	=8-
0G	-me	2r	.	2e/	-rio-	1g	-ceps
*	*	*	*	*	*	*	*Xij
*	*	*	*ij	*	*	*	*
.	.	2g\	glo-	2d/	ſi-	.	.
=9-	=9-	=9-	=9-	=9-	=9-	=9-	=9-
.	.	2e\	-rio-	2.g\	.	2r	.
.	.	2d\	ſi-	.	.	2b-/	glo-
.	.	.	.	4a\	.	.	.
=10-	=10-	=10-	=10-	=10-	=10-	=10-	=10-
1r	.	2.g\	ſsi-	2.b-\	.	2dd\	-rio-
.	.	.	.	.	.	2ee\	-ſi-
.	.	4g\	.	4b-\	-ſi-	.	.
=11-	=11-	=11-	=11-	=11-	=11-	=11-	=11-
2r	.	1d	-me	0a	-me	2.ff\	-ſsi-
*	*	*	*Xij	*	*	*	*
1d\	Mi-	.	.	.	.	.	.
.	.	.	.	.	.	4ff\	.
=12-	=12-	=12-	=12-	=12-	=12-	=12-	=12-
.	.	1r	.	.	.	0ee	-me
2c\	-cha-	.	.	.	.	.	.
=13-	=13-	=13-	=13-	=13-	=13-	=13-	=13-
1c	-el	2r	.	1r	.	.	.
.	.	1g\	Mi-	.	.	.	.
=14-	=14-	=14-	=14-	=14-	=14-	=14-	=14-
!LO:SIC:v:t=custos B-	!	!	!	!	!	!	!
2G\	ar-	.	.	1r	.	1r	.
!LO:LB:g=original	!	!	!	!	!	!	!
1B-\	-cha-	2f\	-cha-	.	.	.	.
=15-	=15-	=15-	=15-	=15-	=15-	=15-	=15-
.	.	1f	-el	1r	.	1ff	Prin-
2A\	-ngle-	.	.	.	.	.	.
=16-	=16-	=16-	=16-	=16-	=16-	=16-	=16-
1B-	-le	2d\	Ar-	1r	.	1ff	-ceps
.	.	1f\	-cha-	.	.	.	.
=17-	=17-	=17-	=17-	=17-	=17-	=17-	=17-
*	*	*	*	*	*	*	*ij
!	!	!	!	!	!	!LO:SIC:v:t=custos cc	!
1r	.	.	.	1r	.	0cc	Prin-
!	!	!	!	!	!	!LO:LB:g=original	!
.	.	2e\	-ngle-	.	.	.	.
=18-	=18-	=18-	=18-	=18-	=18-	=18-	=18-
!	!	!LO:SIC:v:t=custos f	!	!	!	!	!
!	!	!	!	!LO:SIC:v:t=custos a	!	!	!
0F	prin-	1f	-le	0a	prin-	.	.
!	!	!LO:LB:g=original	!	!LO:LB:g=original	!	!	!
=19-	=19-	=19-	=19-	=19-	=19-	=19-	=19-
.	.	2r	.	.	.	1cc	ceps
*	*	*	*	*	*	*	*Xij
.	.	2f\	glo-	.	.	.	.
=20-	=20-	=20-	=20-	=20-	=20-	=20-	=20-
0F	-ceps	2d\	-rio-	1a	-ceps	2r	.
.	.	2c/	-ſi-	.	.	2ff\	glo-
=21-	=21-	=21-	=21-	=21-	=21-	=21-	=21-
.	.	2.f\	-ſsi-	2r	.	2dd\	rio-
.	.	.	.	2f\	glo-	2cc\	-ſi-
.	.	4e\	.	.	.	.	.
=22-	=22-	=22-	=22-	=22-	=22-	=22-	=22-
1r	.	2.d\	.	2a\	rio-	2.ff\	-ſsi-
.	.	.	.	2b-\	-ſi-	.	.
.	.	4d\	.	.	.	4ff\	.
=23-	=23-	=23-	=23-	=23-	=23-	=23-	=23-
2r	.	1.c	-me	2.cc\	-ſsi-	1ee	-me
2C/	glo-	.	.	.	.	.	.
.	.	.	.	4cc\	.	.	.
=24-	=24-	=24-	=24-	=24-	=24-	=24-	=24-
2E/	rio-	.	.	2g\	me	1r	.
*	*	*	*ij	*	*	*	*
2F/	-ſi-	2A/	glo-	1cc\	Mi-	.	.
=25-	=25-	=25-	=25-	=25-	=25-	=25-	=25-
2.G\	-ſsi-	2.d\	-rio-	.	.	2r	.
.	.	.	.	2b-\	-cha-	1dd\	Mi-
4G\	.	4e\	-ſi-	.	.	.	.
=26-	=26-	=26-	=26-	=26-	=26-	=26-	=26-
1F	me	2.f\	-ſsi-	1a	-el	.	.
.	.	.	.	.	.	2cc\	-cha-
.	.	4f\	.	.	.	.	.
=27-	=27-	=27-	=27-	=27-	=27-	=27-	=27-
2r	.	2c/	me	2r	.	1cc	-el
*	*	*	*Xij	*	*	*	*
1F\	Mi-	1f\	Mi-	1a\	Mi-	.	.
=28-	=28-	=28-	=28-	=28-	=28-	=28-	=28-
.	.	.	.	.	.	2a/	Ar-
2C/	-cha-	2e\	-cha-	2g\	-cha-	1cc\	-chan-
=29-	=29-	=29-	=29-	=29-	=29-	=29-	=29-
1G	-el	2d\	-el	1g	-el	.	.
!	!	!	!	!	!	!LO:N:acc=#	!
.	.	2g\	Ar-	.	.	2bn/	-ge-
=30-	=30-	=30-	=30-	=30-	=30-	=30-	=30-
1c	Ar-	4g\	-chan-	2e/	Ar-	0cc	-le
.	.	4f\	.	.	.	.	.
.	.	4e\	.	1g\	-chan-	.	.
.	.	4d\	.	.	.	.	.
=31-	=31-	=31-	=31-	=31-	=31-	=31-	=31-
2.A\	-chan-	2.c/	.	.	.	.	.
.	.	.	.	2f#X\	-ge-	.	.
!LO:SIC:v:t=custos G	!	!	!	!	!	!	!
4A\	-ge-	4c/	ge-	.	.	.	.
!LO:LB:g=original	!	!	!	!	!	!	!
=32-	=32-	=32-	=32-	=32-	=32-	=32-	=32-
1G	-le	0d	-le	4g\	.	2r	.
!	!	!	!	!LO:SIC:v:t=custos b-	!	!	!
.	.	.	.	4a\	.	.	.
!	!	!	!	!LO:LB:g=original	!	!	!
*	*	*	*	*	*	*	*ij
.	.	.	.	4b-\	.	1gg\	Mi-
.	.	.	.	4g\	.	.	.
=33-	=33-	=33-	=33-	=33-	=33-	=33-	=33-
2r	.	.	.	1a	le	.	.
1d\	eſ-	.	.	.	.	2ff\	-cha-
=34-	=34-	=34-	=34-	=34-	=34-	=34-	=34-
.	.	1r	.	2r	.	1ff	-el
2A\	-to	.	.	1fny\	eſ-	.	.
=35-	=35-	=35-	=35-	=35-	=35-	=35-	=35-
1B-	me-	1r	.	.	.	2dd\	Ar-
.	.	.	.	2b-\	-to	1ff\	-chan-
=36-	=36-	=36-	=36-	=36-	=36-	=36-	=36-
1c	-mor	1r	.	2a\	me-	.	.
!	!	!	!	!	!	!LO:SIC:v:t=custos ff	!
.	.	.	.	2g\	-mor	2ee\	-ge-
!	!	!	!	!	!	!LO:LB:g=original	!
=37-	=37-	=37-	=37-	=37-	=37-	=37-	=37-
1d	noſ-	2r	.	2f\	noſ-	2.ff\	.
.	.	1a\	eſ-	2d/	tri	.	.
.	.	.	.	.	.	8ee\	.
.	.	.	.	.	.	8dd\	.
=38-	=38-	=38-	=38-	=38-	=38-	=38-	=38-
1c	-tri	.	.	1r	.	2ee\	-le
*	*	*	*	*	*	*	*Xij
!	!	!LO:SIC:v:t=custos f	!	!	!	!	!
.	.	2e\	to-	.	.	1cc\	eſ-
!	!	!LO:LB:g=original	!	!	!	!	!
=39-	=39-	=39-	=39-	=39-	=39-	=39-	=39-
2r	.	2f\	-me-	2r	.	.	.
*	*ij	*	*	*	*	*	*
1F\	eſ-	2c/	-mor	1f\	eſ-	1a/	-to
=40-	=40-	=40-	=40-	=40-	=40-	=40-	=40-
.	.	1d	noſ-	.	.	.	.
!	!	!	!	!	!	!LO:N:acc=#	!
2D/	-to	.	.	2f\	-to	2bn/	me-
=41-	=41-	=41-	=41-	=41-	=41-	=41-	=41-
2E/	me-	1c	-tri	2g\	me-	1cc	-mor
2F/	-mor	.	.	2a\	-mor	.	.
=42-	=42-	=42-	=42-	=42-	=42-	=42-	=42-
1BB-	noſ-	0f	hic	1b-	noſ-	1dd	noſ-
=43-	=43-	=43-	=43-	=43-	=43-	=43-	=43-
1F	-tri	.	.	1a	tri	1cc	-tri
*	*Xij	*	*	*	*	*	*
=44-	=44-	=44-	=44-	=44-	=44-	=44-	=44-
0c	hic	2r	.	0g	hic	1cc	hic
.	.	2.e\	et	.	.	.	.
=45-	=45-	=45-	=45-	=45-	=45-	=45-	=45-
.	.	.	.	.	.	2r	.
.	.	4e\	u-	.	.	.	.
.	.	2e\	-bi-	.	.	2.gg\	et
=46-	=46-	=46-	=46-	=46-	=46-	=46-	=46-
1r	.	1c	-que	2r	.	.	.
.	.	.	.	.	.	4gg\	u-
.	.	.	.	2.cc\	et	2gg\	-bi-
=47-	=47-	=47-	=47-	=47-	=47-	=47-	=47-
1r	.	1r	.	.	.	2ee\	-que
.	.	.	.	4cc\	u-	.	.
.	.	.	.	2cc\	-bi-	2gg\	ſem-
=48-	=48-	=48-	=48-	=48-	=48-	=48-	=48-
!	!	!	!	!LO:SIC:v:t=custos cc	!	!	!
1r	.	1r	.	2a\	-que	2ff\	-per
!	!	!	!	!LO:LB:g=original	!	!	!
.	.	.	.	2cc\	ſem-	2ee\	pre-
=49-	=49-	=49-	=49-	=49-	=49-	=49-	=49-
1r	.	1r	.	2b-\	-per	4dd\	-ca-
.	.	.	.	.	.	4ee\	.
.	.	.	.	2a\	pre-	2.ff\	.
=50-	=50-	=50-	=50-	=50-	=50-	=50-	=50-
1r	.	1c	hic	1g	-ca-	.	.
.	.	.	.	.	.	8ee\	.
!	!	!	!	!	!	!LO:SIC:v:t=custos ee	!
.	.	.	.	.	.	8dd\	.
!	!	!	!	!	!	!LO:LB:g=original	!
.	.	.	.	.	.	2ee\	.
=51-	=51-	=51-	=51-	=51-	=51-	=51-	=51-
1F	hic	2r	.	2.f\	.	2.ff\	.
.	.	2.c/	et	.	.	.	.
.	.	.	.	4g\	.	8ee\	.
.	.	.	.	.	.	8dd\	.
=52-	=52-	=52-	=52-	=52-	=52-	=52-	=52-
2r	.	.	.	0a	re	0cc	-re
.	.	4c/	u-	.	.	.	.
2.F/	et	2c/	-bi-	.	.	.	.
=53-	=53-	=53-	=53-	=53-	=53-	=53-	=53-
.	.	2A/	-que	.	.	.	.
!LO:SIC:v:t=custos F	!	!	!	!	!	!	!
4F/	u-	.	.	.	.	.	.
!LO:LB:g=original	!	!	!	!	!	!	!
2F/	-bi-	2c/	ſem-	.	.	.	.
=54-	=54-	=54-	=54-	=54-	=54-	=54-	=54-
2D/	-que	2B-/	-per	1r	.	1r	.
2F/	ſem-	2A/	pre-	.	.	.	.
=55-	=55-	=55-	=55-	=55-	=55-	=55-	=55-
2B-\	-per	4d\	-ca-	1r	.	1r	.
.	.	4e\	.	.	.	.	.
2A\	pre-	2.f\	.	.	.	.	.
=56-	=56-	=56-	=56-	=56-	=56-	=56-	=56-
1G	-ca-	.	.	1r	.	1g	Hic
.	.	8e\	.	.	.	.	.
.	.	8d\	.	.	.	.	.
.	.	2e\	.	.	.	.	.
=57-	=57-	=57-	=57-	=57-	=57-	=57-	=57-
0F	re	2.f\	.	1c	hic	2r	.
.	.	.	.	.	.	2.cc\	et
!	!	!LO:SIC:v:t=custos a	!	!	!	!	!
.	.	4g\	.	.	.	.	.
!	!	!LO:LB:g=original	!	!	!	!	!
=58-	=58-	=58-	=58-	=58-	=58-	=58-	=58-
.	.	1a	re	2r	.	.	.
.	.	.	.	.	.	4cc\	ubi-
.	.	.	.	2.f\	et	2cc\	-que
=59-	=59-	=59-	=59-	=59-	=59-	=59-	=59-
1r	.	1r	.	.	.	2a/	ſem-
.	.	.	.	4f\	u-	.	.
.	.	.	.	2f\	-bi-	2cc\	-per
=60-	=60-	=60-	=60-	=60-	=60-	=60-	=60-
1r	.	1r	.	2d/	-que	2b-y/	pre-
.	.	.	.	2g\	ſem-	2b-/	-ca-
=61-	=61-	=61-	=61-	=61-	=61-	=61-	=61-
1F	pro	1r	.	2f\	-per	4a/	.
.	.	.	.	.	.	4b-/	.
.	.	.	.	2e/	pre-	2.cc\	.
=62-	=62-	=62-	=62-	=62-	=62-	=62-	=62-
1G	no-	1g	hic	1d	-ca-	.	.
.	.	.	.	.	.	8b-/	.
.	.	.	.	.	.	8a/	.
!	!	!	!	!	!	!LO:N:acc=#	!
.	.	.	.	.	.	2bn/	.
=63-	=63-	=63-	=63-	=63-	=63-	=63-	=63-
1A	-bis	2r	.	2.c/	.	0.cc	-re
.	.	2.c/	et	.	.	.	.
!	!	!	!	!LO:SIC:v:t=custos A	!	!	!
.	.	.	.	4B-/	.	.	.
!	!	!	!	!LO:LB:g=original	!	!	!
=64-	=64-	=64-	=64-	=64-	=64-	=64-	=64-
1.F	fi-	.	.	2A/	re	.	.
.	.	4c/	u-	.	.	.	.
.	.	2c/	-bi-	1a\	ſem-	.	.
=65-	=65-	=65-	=65-	=65-	=65-	=65-	=65-
.	.	2A/	-que	.	.	.	.
2C/	-li-	2c/	ſem-	1g\	-per	.	.
=66-	=66-	=66-	=66-	=66-	=66-	=66-	=66-
1D	-um	2B-/	-per	.	.	1r	.
.	.	2A/	pre-	2f#X\	pre-	.	.
=67-	=67-	=67-	=67-	=67-	=67-	=67-	=67-
!	!	!	!	!	!	!LO:SIC:v:t=custos cc	!
2.E-X/	De-	4G/	-ca-	2.g\	-ca-	1b-y	pro
!	!	!	!	!	!	!LO:LB:g=original	!
.	.	4A/	.	.	.	.	.
.	.	2.B-/	.	.	.	.	.
4D/	.	.	.	4fny\	.	.	.
=68-	=68-	=68-	=68-	=68-	=68-	=68-	=68-
1C	.	.	.	1e-X	.	1cc	no-
.	.	8A/	.	.	.	.	.
.	.	8G/	.	.	.	.	.
.	.	2A/	.	.	.	.	.
=69-	=69-	=69-	=69-	=69-	=69-	=69-	=69-
0BB-	-i	1B-	-re	2d/	-re	1dd	-bis
.	.	.	.	2.b-\	et	.	.
=70-	=70-	=70-	=70-	=70-	=70-	=70-	=70-
.	.	2r	.	.	.	1.ff	fi-
.	.	.	.	4b-\	v-	.	.
.	.	2.d\	se[m]-	2b-\	-bi-	.	.
=71-	=71-	=71-	=71-	=71-	=71-	=71-	=71-
1r	.	.	.	2f\	-que	.	.
.	.	4e\	-per	.	.	.	.
.	.	2f\	pre-	2a\	ſem-	2cc\	-li-
=72-	=72-	=72-	=72-	=72-	=72-	=72-	=72-
1r	.	1B-	-ca-	2g\	-per	1dd	-um
.	.	.	.	2f\	pre-	.	.
=73-	=73-	=73-	=73-	=73-	=73-	=73-	=73-
1r	.	1e-X	.	4g\	-ca-	2.ee-X\	De-
.	.	.	.	4a\	.	.	.
.	.	.	.	2.b-\	.	.	.
.	.	.	.	.	.	4dd\	.
=74-	=74-	=74-	=74-	=74-	=74-	=74-	=74-
!LO:SIC:v:t=custos B-	!	!	!	!	!	!	!
1F	hic	1f	.	.	.	1cc	.
!LO:LB:g=original	!	!	!	!	!	!	!
.	.	.	.	8a\	.	.	.
.	.	.	.	8g\	.	.	.
!	!	!	!	!LO:SIC:v:t=custos b-	!	!	!
.	.	.	.	2a\	.	.	.
!	!	!	!	!LO:LB:g=original	!	!	!
=75-	=75-	=75-	=75-	=75-	=75-	=75-	=75-
2r	.	2.B-/	.	1b-	-re	1dd	-i
2.B-\	et	.	.	.	.	.	.
!	!	!LO:SIC:v:t=custos d	!	!	!	!	!
.	.	4c/	.	.	.	.	.
!	!	!LO:LB:g=original	!	!	!	!	!
=76-	=76-	=76-	=76-	=76-	=76-	=76-	=76-
.	.	1d	re	1f	pro	1ff	hic
4B-\	ubi-	.	.	.	.	.	.
2B-\	-bi-	.	.	.	.	.	.
=77-	=77-	=77-	=77-	=77-	=77-	=77-	=77-
2G\	-que	1r	.	0g	no-	2r	.
2.c\	et	.	.	.	.	2.eeny\	et
=78-	=78-	=78-	=78-	=78-	=78-	=78-	=78-
.	.	1r	.	.	.	.	.
4c\	ubi-	.	.	.	.	4ee\	ubi-
2c\	-bi-	.	.	.	.	2ee\	-bi-
=79-	=79-	=79-	=79-	=79-	=79-	=79-	=79-
2A\	-que	1r	.	1a	-bis	2ff\	-que
2c\	ſem-	.	.	.	.	2ee\	se[m]-
=80-	=80-	=80-	=80-	=80-	=80-	=80-	=80-
2B-\	-per	1f	pro-	1.d	fi-	2dd\	-per
2A\	pre-	.	.	.	.	2cc\	pre-
=81-	=81-	=81-	=81-	=81-	=81-	=81-	=81-
1G	-ca-	1g	-no-	.	.	2b-/	-ca-
.	.	.	.	2eny/	-li-	2g/	-re
=82-	=82-	=82-	=82-	=82-	=82-	=82-	=82-
0.F	-re	1a	-bis	2f\	-um	2r	.
*	*	*	*	*	*	*	*ij
.	.	.	.	2.a\	et	2.cc\	et
=83-	=83-	=83-	=83-	=83-	=83-	=83-	=83-
.	.	1.f	fi-	.	.	.	.
.	.	.	.	4a\	u-	4cc\	u-
.	.	.	.	2a\	-bi-	2cc\	-bi-
=84-	=84-	=84-	=84-	=84-	=84-	=84-	=84-
.	.	.	.	2f\	-que	2a/	-que
.	.	2c/	-li-	2a\	ſem-	2cc\	se[m]-
=85-	=85-	=85-	=85-	=85-	=85-	=85-	=85-
1B-	pro-	1d	-um	2g\	-per	2b-/	-per
!	!	!	!	!	!	!LO:SIC:v:t=custos g	!
.	.	.	.	1f\	pre-	2a/	pre-
!	!	!	!	!	!	!LO:LB:g=original	!
=86-	=86-	=86-	=86-	=86-	=86-	=86-	=86-
1c	-no-	1r	.	.	.	1g	-ca-
.	.	.	.	2e/	-ca-	.	.
=87-	=87-	=87-	=87-	=87-	=87-	=87-	=87-
1d	-bis	2r	.	1a	-re	1f	re
*	*	*	*	*	*	*	*Xij
.	.	1f\	fi-	.	.	.	.
=88-	=88-	=88-	=88-	=88-	=88-	=88-	=88-
1.B-	fi-	.	.	1.d	pro-	0b-	pro-
.	.	2d\	-li-	.	.	.	.
=89-	=89-	=89-	=89-	=89-	=89-	=89-	=89-
.	.	2.g\	.	.	.	.	.
!LO:SIC:v:t=custos A	!	!	!	!	!	!	!
2G\	-li-	.	.	1e\	-no-	.	.
!LO:LB:g=original	!	!	!	!	!	!	!
.	.	4f\	.	.	.	.	.
=90-	=90-	=90-	=90-	=90-	=90-	=90-	=90-
1A	-um	2eny\	-um	.	.	0cc	-no-
.	.	2.f\	De-	2a\	-bis	.	.
=91-	=91-	=91-	=91-	=91-	=91-	=91-	=91-
2.F/	De-	.	.	2.a\	fi-	.	.
.	.	8e\	.	.	.	.	.
.	.	8d\	.	.	.	.	.
.	.	1c\	.	.	.	.	.
!	!	!	!	!LO:SIC:v:t=custos f	!	!	!
4Eny/	.	.	.	4g\	-li-	.	.
!	!	!	!	!LO:LB:g=original	!	!	!
=92-	=92-	=92-	=92-	=92-	=92-	=92-	=92-
0D	.	.	.	1f	-um	2dd\	-bis
.	.	4B-/	.	.	.	1ff\	fi-
.	.	4A/	.	.	.	.	.
=93-	=93-	=93-	=93-	=93-	=93-	=93-	=93-
!	!	!LO:N:acc=#	!	!	!	!	!
.	.	1Bn	.	1f	De-	.	.
.	.	.	.	.	.	2dd\	-li-
=94-	=94-	=94-	=94-	=94-	=94-	=94-	=94-
2C/	i	2c/	-i	2e/	-i	1ee	-um
2C/	Al-	2G/	Al-	2cc\	Al-	.	.
=95-	=95-	=95-	=95-	=95-	=95-	=95-	=95-
1D	-le-	2.d\	-le-	1a	-le-	2.ff\	De-
.	.	4e\	.	.	.	4ee\	.
=96-	=96-	=96-	=96-	=96-	=96-	=96-	=96-
!	!	!LO:SIC:v:t=custos f	!	!	!	!	!
1BB-	-lu-	2f\	.	1b-	-lu-	1dd	.
!	!	!LO:LB:g=original	!	!	!	!	!
.	.	2.f\	-lu-	.	.	.	.
=97-	=97-	=97-	=97-	=97-	=97-	=97-	=97-
2C/	-ia	.	.	1g	-ia	2cc\	-i
.	.	8e\	.	.	.	.	.
.	.	8d\	.	.	.	.	.
2c\	Al-	2e\	ia	.	.	2gg\	Al-
=98-	=98-	=98-	=98-	=98-	=98-	=98-	=98-
*	*	*	*ij	*	*	*	*
2d\	-le-	1d	Al-	1r	.	1ff	-le-
2B-\	-lu-	.	.	.	.	.	.
=99-	=99-	=99-	=99-	=99-	=99-	=99-	=99-
2c\	-ia	2g\	-le-	1cc	Al-	1ee	-lu-
2A\	Al-	2a\	-lu-	.	.	.	.
=100-	=100-	=100-	=100-	=100-	=100-	=100-	=100-
2B-\	-le-	2f\	.	1b-	-le-	1dd	-ia
2G\	-lu-	2g\	-ia	.	.	.	.
*	*	*	*Xij	*	*	*	*
=101-	=101-	=101-	=101-	=101-	=101-	=101-	=101-
*	*	*	*	*	*	*	*ij
2A\	-ia	2e\	Al-	1a	-lu-	1cc	Al-
2F/	Al-	2f\	-le-	.	.	.	.
=102-	=102-	=102-	=102-	=102-	=102-	=102-	=102-
2G\	-le-	2d\	-lu-	1g	-ia	1b-	-le-
!LO:SIC:v:t=custos F	!	!	!	!	!	!	!
2E-X/	-lu-	2e-X\	-ia	.	.	.	.
!LO:LB:g=original	!	!	!	!	!	!	!
=103-	=103-	=103-	=103-	=103-	=103-	=103-	=103-
*	*	*	*ij	*	*ij	*	*
2F/	-ia	2c/	Al-	1f	Al-	1a	-lu-
*	*ij	*	*	*	*	*	*
2D/	Al-	2d\	-le-	.	.	.	.
=104-	=104-	=104-	=104-	=104-	=104-	=104-	=104-
!	!	!	!	!	!	!LO:SIC:v:t=custos gg	!
2E-X/	-le-	2B-/	-lu-	1e-X	-le-	2g/	-ia
!	!	!	!	!	!	!LO:LB:g=original	!
*	*	*	*	*	*	*	*Xij
2C/	-lu-	2c/	-ia	.	.	2gg\	Al-
*	*	*	*Xij	*	*	*	*
=105-	=105-	=105-	=105-	=105-	=105-	=105-	=105-
2D/	-ia	2r	.	1d	-lu-	2ff\	-le-
2d\	Al-	2f\	Al-	.	.	2dd\	-lu-
=106-	=106-	=106-	=106-	=106-	=106-	=106-	=106-
1c	-le-	2eny\	-le-	2g\	-ia	2ee\	-ia
*	*	*	*	*	*	*	*ij
.	.	2g\	-lu-	2eny/	Al-	2cc\	Al-
=107-	=107-	=107-	=107-	=107-	=107-	=107-	=107-
1B-	-lu-	2d\	-ia	2f\	-le-	2dd\	-le-
*	*	*	*ij	*	*	*	*
.	.	2f\	Al-	2d/	-lu-	2b-/	-lu-
=108-	=108-	=108-	=108-	=108-	=108-	=108-	=108-
1A	-ia	4a\	-le-	2e/	-ia	2cc\	-ia
*	*	*	*	*	*Xij	*	*
.	.	8g\	.	.	.	.	.
.	.	8f\	.	.	.	.	.
.	.	4e\	.	2c/	Al-	2a/	Al-
.	.	4f\	.	.	.	.	.
=109-	=109-	=109-	=109-	=109-	=109-	=109-	=109-
!	!	!LO:SIC:v:t=custos f	!	!LO:SIC:v:t=custos B-	!	!	!
1G	Al-	4g\	.	2d/	-le-	2b-/	-le-
!	!	!	!	!LO:LB:g=original	!	!	!
.	.	8f\	.	.	.	.	.
.	.	8e\	.	.	.	.	.
.	.	4d\	.	2B-/	-lu-	2g/	-lu-
.	.	4e\	.	.	.	.	.
=110-	=110-	=110-	=110-	=110-	=110-	=110-	=110-
1F	-le-	4f\	.	1c	-ia	2a/	-ia
*	*	*	*	*	*Xij	*	*Xij
.	.	8e\	.	.	.	.	.
.	.	8d\	.	.	.	.	.
.	.	4c/	.	.	.	2a/	Al-
.	.	4d\	.	.	.	.	.
=111-	=111-	=111-	=111-	=111-	=111-	=111-	=111-
1E-X	-lu-	4e-X\	.	1g	Al-	4cc\	-le-
.	.	8d\	.	.	.	8b-/	.
.	.	8c\	.	.	.	8a/	.
.	.	4B-/	.	.	.	4g/	.
.	.	4c/	.	.	.	4a/	.
=112-	=112-	=112-	=112-	=112-	=112-	=112-	=112-
1D	-ia	4d\	.	1f	-le-	4b-/	.
*	*Xij	*	*	*	*	*	*
.	.	8c/	.	.	.	8a/	.
.	.	8B-/	.	.	.	8g/	.
.	.	4A/	.	.	.	4f/	.
.	.	4B-/	.	.	.	4g/	.
=113-	=113-	=113-	=113-	=113-	=113-	=113-	=113-
*	*	*	*	*lig	*	*	*
!	!	!	!	!	!	!LO:SIC:v:t=custos g	!
2r	.	2.c/	.	1e-X	-lu-	2a/	.
!	!	!	!	!	!	!LO:LB:g=original	!
2C/	Al-	.	.	.	.	2.g/	lu-
.	.	4B-/	.	.	.	.	.
=114-	=114-	=114-	=114-	=114-	=114-	=114-	=114-
2D/	-le-	2A/	.	1d	.	.	.
.	.	.	.	.	.	4f/	.
2BB-/	-lu-	2d\	lu-	.	.	2.f/	.
*	*	*	*	*Xlig	*	*	*
=115-	=115-	=115-	=115-	=115-	=115-	=115-	=115-
2C/	-ia	1g	-ia	1c	-ia	.	.
*	*	*	*Xij	*	*	*	*
.	.	.	.	.	.	8e/	.
!	!	!	!	!	!	!LO:SIC:v:s= 4D	!
.	.	.	.	.	.	8d/	.
*	*ij	*	*	*	*	*	*
2c\	Al-	.	.	.	.	2e/	.
=116-	=116-	=116-	=116-	=116-	=116-	=116-	=116-
2d\	-le-	2r	.	1r	.	2f/	ia
2B-\	-lu-	2d\	Al-	.	.	2ff\	Al-
=117-	=117-	=117-	=117-	=117-	=117-	=117-	=117-
2c\	-ia	2g\	-le-	1cc	Al-	1ee	-le-
2A\	Al-	2a\	-lu-	.	.	.	.
=118-	=118-	=118-	=118-	=118-	=118-	=118-	=118-
!LO:SIC:v:t=custos G	!	!	!	!	!	!	!
2B-\	-le-	2f\	-ia	1b-	-le-	1dd	-lu-
!LO:LB:g=original	!	!LO:SIC:v:t=custos e	!	!	!	!	!
*	*	*	*ij	*	*	*	*
2G\	-lu-	2g\	Al-	.	.	.	.
!	!	!LO:LB:g=original	!	!	!	!	!
=119-	=119-	=119-	=119-	=119-	=119-	=119-	=119-
2A\	-ia	2eny\	-le-	1a	-lu-	1cc	-ia
2F/	Al-	2f\	-lu-	.	.	.	.
=120-	=120-	=120-	=120-	=120-	=120-	=120-	=120-
2G\	-le-	2d\	-ia	1g	-ia	1.b-	Al-
*	*	*	*Xij	*	*	*	*
2E-X/	-lu-	2e-X\	Al-	.	.	.	.
=121-	=121-	=121-	=121-	=121-	=121-	=121-	=121-
*	*	*	*	*	*ij	*	*
1F	-ia	1c	-le-	1f	Al-	.	.
*	*Xij	*	*	*	*	*	*
.	.	.	.	.	.	1a/	-le-
=122-	=122-	=122-	=122-	=122-	=122-	=122-	=122-
2r	.	2.c/	-lu-	1e-X	-le-	.	.
2C/	Al-	.	.	.	.	2.g/	-lu-
.	.	4B-/	.	.	.	.	.
=123-	=123-	=123-	=123-	=123-	=123-	=123-	=123-
2D/	-le-	2A/	.	1d	-lu-	.	.
.	.	.	.	.	.	4f/	.
2BB-/	-lu-	4B-/	.	.	.	1f/	.
.	.	4A/	.	.	.	.	.
=124-	=124-	=124-	=124-	=124-	=124-	=124-	=124-
1C	-ia	1G	.	1c	-ia	.	.
.	.	.	.	.	.	2e/	.
=125-	=125-	=125-	=125-	=125-	=125-	=125-	=125-
2r	.	1F	-ia	2r	.	00f	-ia
2F/	Al-	.	.	2c/	Al-	.	.
=126-	=126-	=126-	=126-	=126-	=126-	=126-	=126-
1B-	-le-	1r	.	2d/	-le-	.	.
.	.	.	.	2B-/	-lu-	.	.
=127-	=127-	=127-	=127-	=127-	=127-	=127-	=127-
1A	-lu-	2r	.	1c	-ia	.	.
*	*	*	*ij	*	*	*	*
.	.	2c/	Al-	.	.	.	.
=128-	=128-	=128-	=128-	=128-	=128-	=128-	=128-
2B-\	-ia	2d\	-le-	1r	.	.	.
2BB-/	Al-	2B-/	-lu-	.	.	.	.
=129-	=129-	=129-	=129-	=129-	=129-	=129-	=129-
1F	-le-	2c/	-ia	2r	.	1r	.
.	.	2A/	Al-	2c/	Al-	.	.
=130-	=130-	=130-	=130-	=130-	=130-	=130-	=130-
0BB-	-lu-	2.B-/	-le-	1d	-le-	1r	.
.	.	4c/	.	.	.	.	.
=131-	=131-	=131-	=131-	=131-	=131-	=131-	=131-
.	.	2d\	lu-	1B-	-lu-	1r	.
.	.	1B-/	.	.	.	.	.
=132-	=132-	=132-	=132-	=132-	=132-	=132-	=132-
00F	-ia.	.	.	00c	-ia	1r	.
*	*	*	*	*	*Xij	*	*
.	.	4A/	.	.	.	.	.
.	.	4G/	.	.	.	.	.
=133-	=133-	=133-	=133-	=133-	=133-	=133-	=133-
.	.	00A	-ia	.	.	1r	.
*	*	*	*Xij	*	*	*	*
=134-	=134-	=134-	=134-	=134-	=134-	=134-	=134-
.	.	.	.	.	.	1r	.
=135-	=135-	=135-	=135-	=135-	=135-	=135-	=135-
.	.	.	.	.	.	1r	.
=136-	=136-	=136-	=136-	=136-	=136-	=136-	=136-
1r	.	.	.	1r	.	1r	.
=-	=-	=-	=-	=-	=-	=-	=-
*-	*-	*-	*-	*-	*-	*-	*-
!!!system-decoration: [(s1,s2,s3,s4)]
!!!ENC: Marta Opryszak
!!!END: 2022-07-03
!!!ENC: Julita Ruszuk
!!!END: 2022-07-08
